X:8
T: Black Joak - Adderbury 
C: Trad
R: Rag Morris
K: G
L: 1/8
M: 6/8
r: 22
W: Morris formula: A.(AB)6
Z: ABC transcription by Mackin (2019) & Rag (2009) 
[P:A] "D" D |: "G" D2 G GFG | "D" AcB AGF |"G" GAB dcB |"C" AcB AGF |
"G" GAB "C"EFG |[1"D" DEF "G" G2 "D" D :|[2 "D" DEF "G" G3 ] ||
P:B
"G" Bdd d2 d |  "C" ede "G"dBG | GBd dBd | "C" gfe "D" d2 c | "Em" B2 B BAG |
"Am" AcB "D"AGF | "G" GAB dcB | "C" AcB "D" AGF| "G" GAB "C" EFG | "D" DEF "G" G2 ||
